bash.svg

<svg fill="currentColor" viewBox="0 0 24 24"><path d="M5 9h2.31l.32-3h2l-.32 3h2l.32-3h2l-.32 3H15v2h-1.9l-.2 2H15v2h-2.31l-.32 3h-2l.32-3h-2l-.32 3h-2l.32-3H5v-2h1.9l.2-2H5zm4.1 2-.2 2h2l.2-2M19 6h-2v8h2m0 2h-2v2h2Z"/></svg>

<svg  viewBox="0 0 24 24" fill="currentColor"><path  d="M5 9H7.31L7.63 6H9.63L9.31 9H11.31L11.63 6H13.63L13.31 9H15V11H13.1L12.9 13H15V15H12.69L12.37 18H10.37L10.69 15H8.69L8.37 18H6.37L6.69 15H5V13H6.9L7.1 11H5V9M9.1 11L8.9 13H10.9L11.1 11M19 6H17V14H19M19 16H17V18H19Z"/></svg>
